source/img/run.svg

<svg width="21" height="24" viewBox="0 0 21 24" fill="none" xmlns="http://www.w3.org/2000/svg">
<path d="M14.9758 5.75992C15.9264 5.75992 16.697 4.90031 16.697 3.83992C16.697 2.77954 15.9264 1.91992 14.9758 1.91992C14.0252 1.91992 13.2546 2.77954 13.2546 3.83992C13.2546 4.90031 14.0252 5.75992 14.9758 5.75992Z" fill="#1D2E5B"/>
<path d="M13.9233 10.5302C14.1209 10.8586 14.4043 11.1113 14.735 11.2538C15.0657 11.3964 15.4277 11.4219 15.7719 11.327L18.6256 10.5312L18.21 8.66881L15.3562 9.46465L14.1695 7.48033C13.9159 7.05655 13.5224 6.76184 13.0748 6.66049L9.76493 5.92129C9.39465 5.83839 9.01021 5.89379 8.67097 6.07893C8.33173 6.26406 8.05657 6.56863 7.88797 6.94561L6.4611 10.129L8.00071 10.9882L9.42758 7.80385L11.1204 8.18209L6.74338 16.32H2.92749V18.24H6.74338C7.34407 18.24 7.90949 17.8829 8.2193 17.3078L9.86993 14.2397L14.3184 15.2323L15.8812 20.4634L17.5129 19.8557L15.9509 14.6256C15.8545 14.3045 15.684 14.0174 15.4564 13.7933C15.2289 13.5691 14.9524 13.4158 14.6548 13.3488L12.0395 12.7661L13.5645 9.93025L13.9233 10.5302Z" fill="#1D2E5B"/>
</svg>

<svg width="21" height="24" fill="none" xmlns="http://www.w3.org/2000/svg"><path d="M14.98 5.76c.95 0 1.72-.86 1.72-1.92s-.77-1.92-1.72-1.92-1.73.86-1.73 1.92.78 1.92 1.73 1.92zM13.92 10.53c.2.33.48.58.81.72.34.15.7.17 1.04.08l2.86-.8-.42-1.86-2.85.8-1.2-1.99a1.73 1.73 0 00-1.09-.82l-3.3-.74a1.56 1.56 0 00-1.1.16c-.34.18-.61.49-.78.87l-1.43 3.18 1.54.86L9.43 7.8l1.69.38-4.38 8.14H2.93v1.92h3.81c.6 0 1.17-.36 1.48-.93l1.65-3.07 4.45 1 1.56 5.22 1.63-.6-1.56-5.23c-.1-.33-.27-.61-.5-.84-.22-.22-.5-.37-.8-.44l-2.61-.58 1.52-2.84.36.6z" fill="#1D2E5B"/></svg>
